X:212
%%etbk:tnset id:158,pos:2,rep:3x,ant:
%%etbk:wsite http://www.trad.katesplacedoolin.com/tunes/redhairedlass.html
%%etbk:pldat 2016-09-15T18:38,2016-09-11T15:32,2016-07-09T13:58,2016-07-07T15:19,2015-12-15T17:06,2014-12-29T17:15,2014-12-18T18:38,2014-04-30T15:35,2014-04-09T17:15,2014-04-08T17:12,2014-03-26T16:58,2014-03-25T17:33,2013-11-19T16:42,2013-11-16T15:25,2013-11-13T16:33,2013-05-14T18:40,2013-05-02T18:02
T:Redhaired Lass, The
Z: Piano Box Version by Martin Fleischmann
H: Created 2013-02-19 /  Last Modified 2014-04-'8
R:reel
M:4/4
K: Gmaj
|: "G"!1!D!3!GGF G2!5!BG | !3!G2!5!BG "D"!4!AG!2!E!3!G | "G"!1!D!3!GG!2!F !1!G!1!A!2!B!3!d |1 !5!g!4!e!3!d!2!B "D"!3!c!1!A!5!B!3!G:|2 !5!g!4!e!3!d!2!B "D"!3!c2!2!B!3!c||
"G"!1!d2!4!gd !2!edgd | !1!d2!4!g!1!d !3!c!1!A!2!B!3!c | !1!d2!4!gd !3!e2!3!ef | !5!ge!2!d!1!B "D"!2!c2!1!B!2!c |
"G"!1!d2!4!gd !2!edgd | !1!d2!4!g!1!d  !3!B!1!G!2!A!3!B| "C"!4!c2cA "G"!3!B2BA | !1!GA!3!B!4!d "D"!5!e2!4!d!3!B||


